X:16465
T:The Beauty Spot
R:Reel
S:
H:
N:
D:
Z:Adrian Scahill
M:4/4
L:1/8
K:G
A2GB A2dB|c3G EFGB|A2GB A2dB|c3G EDEG|\
A2GB A2dB|c3G EFGB|A3c B3d|c3G EDD2||\
edd2 ed(3Bcd|edd2 egg2|edd2 edcB|ABcd edd2|\
e2dg ed(3Bcd|edd2 egg2|afge fded|ABcd edd2||
